packages/components/Atoms/Icon/assets/img/rpl_icon_xlsm.svg

<svg width="21" height="20" viewBox="0 0 21 20" overflow="visible" xmlns="http://www.w3.org/2000/svg">
  <path fill-rule="evenodd" clip-rule="evenodd" d="M10 5V2.824L12.176 5H10ZM10.003 0H1C0.447 0 0 0.447 0 1V19C0 19.553 0.447 20 1 20H14C14.553 20 15 19.553 15 19V16H13V18H2V2H8V6C8 6.553 8.447 7 9 7H13V9H15V4.997L10.003 0Z"
    fill="inherit" />
  <path fill-rule="evenodd" clip-rule="evenodd" d="M5.68459 15.0127L4.86559 13.4787L4.04559 15.0127H2.64459L4.19959 12.4557L2.74359 10.0267H4.13659L4.86559 11.4337L5.59359 10.0267H6.98759L5.53059 12.4557L7.08459 15.0127H5.68459Z"
    fill="inherit" />
  <path fill-rule="evenodd" clip-rule="evenodd" d="M7.4473 15.0127V10.0267H8.6733V13.9197H10.7663V15.0127H7.4473Z" fill="inherit"
  />
  <path fill-rule="evenodd" clip-rule="evenodd" d="M12.9014 15.0546C12.1374 15.0546 11.5134 14.9146 11.0094 14.3966L11.7944 13.6126C12.0534 13.8706 12.5084 13.9616 12.9084 13.9616C13.3914 13.9616 13.6224 13.8006 13.6224 13.5136C13.6224 13.3946 13.5944 13.2966 13.5244 13.2196C13.4614 13.1566 13.3564 13.1076 13.1954 13.0866L12.5924 13.0026C12.1514 12.9396 11.8154 12.7926 11.5904 12.5616C11.3604 12.3236 11.2484 11.9876 11.2484 11.5596C11.2484 10.6496 11.9344 9.98459 13.0694 9.98459C13.7834 9.98459 14.3224 10.1526 14.7504 10.5786L13.9794 11.3496C13.6644 11.0336 13.2514 11.0556 13.0344 11.0556C12.6064 11.0556 12.4314 11.3006 12.4314 11.5176C12.4314 11.5806 12.4534 11.6716 12.5294 11.7486C12.5924 11.8116 12.6984 11.8746 12.8734 11.8966L13.4754 11.9806C13.9234 12.0426 14.2464 12.1836 14.4564 12.3936C14.7214 12.6526 14.8274 13.0236 14.8274 13.4866C14.8274 14.5006 13.9514 15.0546 12.9014 15.0546Z"
    fill="inherit" />
  <path fill-rule="evenodd" clip-rule="evenodd" d="M18.7744 15.0127V12.6237L18.0674 13.8577H17.2834L16.5754 12.6237V15.0127H15.3494V10.0267H16.5544L17.6744 12.2257L18.7954 10.0267H20.0004V15.0127H18.7744Z"
    fill="inherit" />
</svg>

<svg width="21" height="20" overflow="visible" xmlns="http://www.w3.org/2000/svg"><path fill-rule="evenodd" clip-rule="evenodd" d="M10 5V2.824L12.176 5H10zm.003-5H1a1 1 0 00-1 1v18a1 1 0 001 1h13a1 1 0 001-1v-3h-2v2H2V2h6v4a1 1 0 001 1h4v2h2V4.997L10.003 0z" fill="inherit"/><path fill-rule="evenodd" clip-rule="evenodd" d="M5.685 15.013l-.82-1.534-.82 1.534h-1.4L4.2 12.456l-1.456-2.43h1.393l.729 1.408.728-1.407h1.394L5.53 12.456l1.554 2.557h-1.4zM7.447 15.013v-4.986h1.226v3.893h2.093v1.093H7.447zM12.901 15.055c-.764 0-1.388-.14-1.892-.658l.785-.784c.26.258.714.349 1.114.349.483 0 .714-.161.714-.448a.416.416 0 00-.098-.294c-.063-.063-.168-.112-.329-.133l-.603-.084c-.44-.063-.777-.21-1.002-.441-.23-.238-.342-.574-.342-1.002 0-.91.686-1.575 1.821-1.575.714 0 1.253.168 1.681.594l-.77.77c-.316-.315-.729-.293-.946-.293-.428 0-.603.245-.603.462 0 .063.022.154.098.23a.57.57 0 00.344.149l.602.084c.448.062.771.203.981.413.265.259.371.63.371 1.093 0 1.014-.876 1.568-1.926 1.568zM18.774 15.013v-2.39l-.707 1.235h-.784l-.708-1.234v2.389H15.35v-4.986h1.205l1.12 2.199 1.121-2.2H20v4.987h-1.226z" fill="inherit"/></svg>
